src/pages/screens/Techs/images/frontend/Typescript.svg

<svg width="32" height="32" viewBox="0 0 32 32" fill="none" xmlns="http://www.w3.org/2000/svg">
<path d="M28.875 0H3.125C1.39911 0 0 1.39911 0 3.125V28.875C0 30.6009 1.39911 32 3.125 32H28.875C30.6009 32 32 30.6009 32 28.875V3.125C32 1.39911 30.6009 0 28.875 0Z" fill="#3178C6"/>
<path fill-rule="evenodd" clip-rule="evenodd" d="M19.8125 25.4376V28.5626C20.3188 28.8251 20.9375 29.0188 21.625 29.1501C22.3125 29.2813 23.0625 29.3438 23.8125 29.3438C24.5625 29.3438 25.25 29.2751 25.9375 29.1313C26.625 28.9876 27.1875 28.7501 27.6875 28.4438C28.1938 28.1126 28.625 27.6938 28.875 27.1313C29.125 26.5688 29.3188 25.9438 29.3188 25.1313C29.3188 24.5626 29.2313 24.0688 29.0625 23.6313C28.8937 23.1938 28.65 22.8188 28.3125 22.5063C27.9937 22.1751 27.625 21.8813 27.1875 21.6313C26.75 21.3813 26.25 21.1188 25.6875 20.8813C25.275 20.7126 24.9375 20.5501 24.5625 20.3876C24.2375 20.2251 23.9562 20.0626 23.75 19.9001C23.5187 19.7313 23.3438 19.5563 23.2188 19.3751C23.0938 19.1876 23.0312 18.9813 23.0312 18.7501C23.0312 18.5376 23.0869 18.3438 23.2 18.1688C23.3131 17.9938 23.4688 17.8501 23.6688 17.7251C23.8688 17.6001 24.1188 17.5063 24.4188 17.4376C24.7125 17.3688 25.0375 17.3376 25.4188 17.3376C25.6813 17.3376 25.9563 17.357 26.2313 17.3963C26.5188 17.4357 26.8125 17.4963 27.1063 17.5776C27.4 17.6588 27.6875 17.7588 27.9813 17.8838C28.2563 18.0088 28.5125 18.1526 28.7313 18.3151V15.3776C28.2563 15.1963 27.7313 15.0588 27.1688 14.9713C26.6063 14.8838 25.9813 14.8401 25.2313 14.8401C24.4813 14.8401 23.7938 14.9213 23.1063 15.0776C22.4188 15.2338 21.8563 15.4838 21.3563 15.8276C20.85 16.1651 20.4813 16.5776 20.1688 17.1401C19.875 17.6651 19.7313 18.2651 19.7313 19.0151C19.7313 19.9526 20 20.7651 20.5438 21.3901C21.0813 22.0776 21.9188 22.5776 22.9813 23.0776C23.4125 23.2526 23.7938 23.4276 24.1688 23.5963C24.5438 23.7651 24.8563 23.9401 25.1063 24.1213C25.375 24.3026 25.5875 24.5026 25.7313 24.7151C25.8875 24.9276 25.9688 25.1776 25.9688 25.4651C25.9688 25.6651 25.92 25.8526 25.825 26.0276C25.73 26.2026 25.5813 26.3526 25.3813 26.4776C25.1812 26.6026 24.9375 26.7026 24.6313 26.7776C24.3375 26.8463 24.0063 26.8838 23.5688 26.8838C22.8813 26.8838 22.1938 26.7651 21.5688 26.5276C20.8813 26.2901 20.2563 25.9338 19.6938 25.4651L19.8125 25.4376ZM14.5625 17.7501H18.5625V15.1876H7.375V17.7501H11.375V29.1876H14.5625V17.7501Z" fill="white"/>
</svg>

<svg width="32" height="32" fill="none" xmlns="http://www.w3.org/2000/svg"><path d="M28.875 0H3.125A3.125 3.125 0 0 0 0 3.125v25.75C0 30.601 1.4 32 3.125 32h25.75C30.601 32 32 30.6 32 28.875V3.125C32 1.399 30.6 0 28.875 0z" fill="#3178C6"/><path fill-rule="evenodd" clip-rule="evenodd" d="M19.813 25.438v3.125c.506.262 1.125.456 1.812.587.688.131 1.438.194 2.188.194.75 0 1.437-.069 2.125-.213a5.389 5.389 0 0 0 1.75-.687c.506-.331.937-.75 1.187-1.313.25-.562.444-1.187.444-2a4.12 4.12 0 0 0-.256-1.5 2.945 2.945 0 0 0-.75-1.125 4.966 4.966 0 0 0-1.125-.875c-.438-.25-.938-.512-1.5-.75-.413-.168-.75-.33-1.125-.493a4.876 4.876 0 0 1-.813-.488 2.231 2.231 0 0 1-.531-.525 1.098 1.098 0 0 1-.188-.625c0-.212.056-.406.169-.581.113-.175.269-.319.469-.444.2-.125.45-.219.75-.287.293-.07.619-.1 1-.1.262 0 .537.019.812.058a6.941 6.941 0 0 1 1.75.488c.275.125.531.269.75.431v-2.937c-.475-.182-1-.32-1.562-.407a12.532 12.532 0 0 0-1.938-.13 9.42 9.42 0 0 0-2.125.237 4.945 4.945 0 0 0-1.75.75c-.506.337-.875.75-1.187 1.312-.294.525-.438 1.125-.438 1.875 0 .938.269 1.75.813 2.375.537.688 1.375 1.188 2.437 1.688.431.175.813.35 1.188.518.375.17.687.344.937.525.269.182.481.382.625.594.156.213.238.463.238.75 0 .2-.049.388-.144.563a1.23 1.23 0 0 1-.444.45c-.2.125-.444.225-.75.3a4.572 4.572 0 0 1-1.062.106 5.665 5.665 0 0 1-2-.356 5.94 5.94 0 0 1-1.875-1.063l.119-.027zm-5.25-7.688h4v-2.562H7.374v2.562h4v11.438h3.188V17.75z" fill="#fff"/></svg>
